X:68
T:East Lincoln Quick Step,The. 2voices RH.068
R:Quickstep
S:Rev.R.Harrison’s MS,c1815,Cumbria
N:I cut one quaver from the last bar of each music.
O:England
A:Temple Sowerby,Cumbria
Z:vmp.Simon Wilson. Review PJH, 2008.
M:6/8
L:1/8
Q:3/8=110
K:D
[V:1] a/g/|f2f ede|f2d d2f|gbg faf|fee eag|
[V:2] f/e/|d2d AFA|d2d f2d|eee ddd|dcc cfe|
%
[V:1] f2f ede|f2d d2b|agf ede|d3- d2:|
[V:2] d2d AFA|d2d f2g|fed A2A|F3- F2:|
%
[V:1]|:(f/g/)|a2a afa|b2b bc’d’|a2a agf|fee efg|
[V:2]|:(d/e/)|f2f fdf|g2g geg|f2f fdf|dcc cde|
%
[V:1] a2a afa|b2b bc’d’|agf ede|d3- d2:|
[V:2] f2f fdf|g2g geg|fed AAA|F3- F2:|

